X: 30498
T: Olga's
R: waltz
M: 3/4
K: Dmajor
|:cB|A2 d3 e|f4 g2|f6|e6|A2 c3 d|e4 f2|e4 c2|d4- dc|
d2 f3 g|a4 b2|a4 B2|g6|f2 A3 d|f4 e2|d6-|d4:|
a^g|g2 B3 d|a4 g2|f2 A3 d|g4 f2|e2 G3 B|f4 e2|de fc dB|A2 a3 ^g|
g2 B2 d2|a4 g/a/g|f2 A2 d2|g4- gf|e2 G2 B2|f4 e2|d/e/d cd fd|d'4 c'2||
c'b ^ab c'b|e2 f2 g2|ba ^ga ba|d/e/d e2 f2|ag fg ag|c2 a3 g|^e4 f2|d2 f2 a2|
c'b ^ab c'b|e2 f/g/f g2|ba ^ga ba|d2 e2 f2|ag fg ec|c'b ag fe|d/e/d f2 a2|d'4||

